assets/images/techs/wordpress.svg

<?xml version="1.0" encoding="UTF-8"?>
<svg width="50px" height="50px" viewBox="0 0 50 50" version="1.1" xmlns="http://www.w3.org/2000/svg" xmlns:xlink="http://www.w3.org/1999/xlink">
    <title>wordpress</title>
    <g id="Page-1" stroke="none" stroke-width="1" fill="none" fill-rule="evenodd">
        <g id="wordpress" fill="#133A94" fill-rule="nonzero">
            <path d="M44.7271,14.2187 C46.4771,17.4208 47.4729,21.0938 47.4729,25 C47.4729,33.2896 42.9812,40.5333 36.3,44.4271 L43.1646,24.5792 C44.4458,21.3708 44.8729,18.8062 44.8729,16.5292 C44.8729,15.6854 44.8187,14.9042 44.7271,14.2167 L44.7271,14.2187 Z M28.1,14.4354 C29.4479,14.3729 30.6667,14.2167 30.6667,14.2167 C31.8792,14.0604 31.7375,12.2792 30.5271,12.3438 C30.5271,12.3438 26.8708,12.625 24.5271,12.625 C22.3104,12.625 18.5896,12.3125 18.5896,12.3125 C17.3708,12.25 17.2125,14.0938 18.4333,14.1562 C18.4333,14.1562 19.5583,14.2833 20.7771,14.3438 L24.2771,23.9375 L19.3396,38.6875 L11.1542,14.375 C12.5062,14.3125 13.725,14.1667 13.725,14.1667 C14.9437,14.0104 14.8,12.2292 13.5896,12.3 C13.5896,12.3 9.95208,12.5875 7.60208,12.5875 C7.18542,12.5875 6.68958,12.5708 6.16458,12.5562 C10.2312,6.5625 17.1562,2.53125 25,2.53125 C30.8521,2.53125 36.1771,4.76458 40.1792,8.43333 C40.0833,8.42708 39.9896,8.41458 39.8854,8.41458 C37.6771,8.41458 36.1104,10.3375 36.1104,12.4021 C36.1104,14.2562 37.1792,15.825 38.3187,17.675 C39.175,19.175 40.1729,21.0979 40.1729,23.8771 C40.1729,25.7833 39.4354,28.0312 38.4625,31.125 L36.2229,38.5937 L28.0979,14.4062 L28.1,14.4354 Z M25,47.4667 C22.7937,47.4667 20.6646,47.1479 18.65,46.5562 L25.3937,26.9604 L32.3,45.8917 C32.35,46.0021 32.4042,46.1021 32.4625,46.2021 C30.1292,47.0208 27.6187,47.4708 25,47.4708 L25,47.4667 Z M2.52292,25 C2.52292,21.7417 3.22292,18.6458 4.47083,15.8542 L15.1875,45.2271 C7.69583,41.5833 2.525,33.8979 2.52292,25 Z M25,0 C11.2188,0 0,11.2188 0,25 C0,38.7812 11.2188,50 25,50 C38.7812,50 50,38.7812 50,25 C50,11.2188 38.7812,0 25,0 Z" id="Shape"></path>
        </g>
    </g>
</svg>

<svg width="50" height="50" xmlns="http://www.w3.org/2000/svg"><path d="M44.727 14.219A22.412 22.412 0 0147.473 25c0 8.29-4.492 15.533-11.173 19.427l6.865-19.848c1.28-3.208 1.708-5.773 1.708-8.05 0-.844-.054-1.625-.146-2.312v.002zm-16.627.216c1.348-.062 2.567-.218 2.567-.218 1.212-.157 1.07-1.938-.14-1.873 0 0-3.656.281-6 .281-2.217 0-5.937-.313-5.937-.313-1.22-.062-1.378 1.782-.157 1.844 0 0 1.125.127 2.344.188l3.5 9.594-4.937 14.75-8.186-24.313c1.352-.063 2.571-.208 2.571-.208 1.219-.157 1.075-1.938-.135-1.867 0 0-3.638.287-5.988.287-.417 0-.912-.016-1.437-.03C10.23 6.561 17.156 2.53 25 2.53a22.378 22.378 0 0115.18 5.902c-.097-.006-.19-.018-.295-.018-2.208 0-3.775 1.923-3.775 3.987 0 1.854 1.07 3.423 2.209 5.273.856 1.5 1.854 3.423 1.854 6.202 0 1.906-.738 4.154-1.71 7.248l-2.24 7.469-8.125-24.188.002.03zM25 47.467c-2.206 0-4.335-.32-6.35-.91l6.744-19.597L32.3 45.892c.05.11.104.21.163.31A22.496 22.496 0 0125 47.471v-.004zM2.523 25c0-3.258.7-6.354 1.948-9.146l10.716 29.373C7.697 41.583 2.525 33.897 2.524 25zM25 0C11.219 0 0 11.219 0 25s11.219 25 25 25 25-11.219 25-25S38.781 0 25 0z" fill="#133A94" fill-rule="nonzero"/></svg>
